; generated by PrusaSlicer 2.0.0+ on 2019-10-22 at 23:37:05

; 

; external perimeters extrusion width = 1.00mm
; perimeters extrusion width = 1.00mm
; infill extrusion width = 1.00mm
; solid infill extrusion width = 1.00mm
; top infill extrusion width = 0.40mm
; first layer extrusion width = 1.00mm

M73 P0 R63
M73 Q0 S63
M201 X1000 Y1000 Z1000 E5000 ; sets maximum accelerations, mm/sec^2
M203 X200 Y200 Z12 E120 ; sets maximum feedrates, mm/sec
M204 P1250 R1250 T1250 ; sets acceleration (P, T) and retract acceleration (R), mm/sec^2
M205 X8.00 Y8.00 Z0.40 E1.50 ; sets the jerk limits, mm/sec
M205 S0 T0 ; sets the minimum extruding and travel feed rate, mm/sec
M107
M115 U3.8.0 ; tell printer latest fw version
G90 ; use absolute coordinates
M83 ; extruder relative mode
M104 S215 ; set extruder temp
M140 S60 ; set bed temp
M190 S60 ; wait for bed temp
M109 S215 ; wait for extruder temp
G28 W ; home all without mesh bed level
G80 ; mesh bed leveling
G1 Y-3.0 F1000.0 ; go outside print area
G92 E0.0
G1 X60.0 E9.0 F1000.0 ; intro line
M73 Q0 S63
M73 P0 R62
G1 X100.0 E12.5 F1000.0 ; intro line
G92 E0.0
M221 S95
M900 K30 ; Filament gcode
G21 ; set units to millimeters
G90 ; use absolute coordinates
M83 ; use relative distances for extrusion
;BEFORE_LAYER_CHANGE
G92 E0.0
;0.1


G1 E-0.80000 F2100.00000
G1 Z0.600 F10800.000
;AFTER_LAYER_CHANGE
;0.1
G1 X111.855 Y91.026
G1 Z0.100
G1 E0.80000 F2100.00000
M204 S1000
G1 F900
G1 X123.507 Y102.678 E0.67039
G1 X137.000 Y102.678 E0.54894
G1 X137.000 Y95.678 E0.28478
G1 X156.000 Y95.678 E0.77298
G1 X156.000 Y114.678 E0.77298
G1 X137.000 Y114.678 E0.77298
G1 X137.000 Y106.678 E0.32546
G1 X123.506 Y106.678 E0.54898
G1 X111.610 Y118.574 E0.68445
G1 X111.878 Y119.022 E0.02122
G1 X112.276 Y119.865 E0.03793
G1 X112.590 Y120.742 E0.03792
G1 X112.817 Y121.647 E0.03794
G1 X112.954 Y122.569 E0.03793
G1 X112.999 Y123.500 E0.03792
G1 X112.954 Y124.431 E0.03792
G1 X112.817 Y125.353 E0.03793
G1 X112.590 Y126.258 E0.03794
G1 X112.276 Y127.135 E0.03792
G1 X111.878 Y127.978 E0.03793
G1 X111.399 Y128.778 E0.03792
G1 X110.843 Y129.526 E0.03792
G1 X110.217 Y130.217 E0.03793
G1 X109.526 Y130.843 E0.03793
G1 X108.778 Y131.399 E0.03792
G1 X107.978 Y131.878 E0.03792
G1 X107.135 Y132.276 E0.03793
G1 X106.258 Y132.590 E0.03792
G1 X105.353 Y132.817 E0.03794
G1 X104.431 Y132.954 E0.03793
G1 X103.500 Y132.999 E0.03792
G1 X102.569 Y132.954 E0.03792
G1 X101.647 Y132.817 E0.03793
G1 X100.742 Y132.590 E0.03794
G1 X99.865 Y132.276 E0.03792
G1 X99.022 Y131.878 E0.03793
G1 X98.222 Y131.399 E0.03792
G1 X97.476 Y130.845 E0.03782
G1 X96.783 Y130.217 E0.03803
G1 X96.157 Y129.526 E0.03792
G1 X95.601 Y128.778 E0.03792
G1 X95.122 Y127.978 E0.03792
G1 X94.724 Y127.135 E0.03793
G1 X94.410 Y126.258 E0.03792
G1 X94.183 Y125.353 E0.03794
G1 X94.046 Y124.431 E0.03793
G1 X94.001 Y123.500 E0.03792
G1 X94.046 Y122.569 E0.03792
G1 X94.183 Y121.647 E0.03793
G1 X94.410 Y120.742 E0.03794
G1 X94.724 Y119.865 E0.03792
G1 X95.122 Y119.022 E0.03793
G1 X95.601 Y118.222 E0.03792
G1 X96.157 Y117.474 E0.03792
G1 X96.783 Y116.783 E0.03793
G1 X97.474 Y116.157 E0.03793
G1 X98.222 Y115.601 E0.03792
G1 X99.022 Y115.122 E0.03792
G1 X99.865 Y114.724 E0.03793
G1 X100.742 Y114.410 E0.03792
G1 X101.647 Y114.183 E0.03794
G1 X102.569 Y114.046 E0.03793
G1 X103.500 Y114.001 E0.03792
G1 X104.431 Y114.046 E0.03792
G1 X105.353 Y114.183 E0.03793
G1 X106.258 Y114.410 E0.03794
G1 X107.135 Y114.724 E0.03792
G1 X107.978 Y115.122 E0.03793
G1 X108.870 Y115.657 E0.04231
G1 X119.849 Y104.678 E0.63165
G1 X109.232 Y94.061 E0.61082
G1 X108.778 Y94.399 E0.02303
G1 X107.978 Y94.878 E0.03792
G1 X107.135 Y95.276 E0.03793
G1 X106.258 Y95.590 E0.03792
G1 X105.353 Y95.817 E0.03794
G1 X104.431 Y95.954 E0.03793
G1 X103.500 Y95.999 E0.03792
G1 X102.569 Y95.954 E0.03792
G1 X101.647 Y95.817 E0.03793
G1 X100.742 Y95.590 E0.03794
G1 X99.865 Y95.276 E0.03792
G1 X99.022 Y94.878 E0.03793
G1 X98.222 Y94.399 E0.03792
G1 X97.474 Y93.843 E0.03792
G1 X96.785 Y93.219 E0.03783
G1 X96.158 Y92.528 E0.03793
G1 X95.601 Y91.778 E0.03802
G1 X95.122 Y90.978 E0.03792
G1 X94.724 Y90.135 E0.03793
G1 X94.410 Y89.258 E0.03792
G1 X94.183 Y88.353 E0.03794
G1 X94.046 Y87.431 E0.03793
G1 X94.001 Y86.500 E0.03792
G1 X94.046 Y85.569 E0.03792
G1 X94.183 Y84.647 E0.03793
G1 X94.410 Y83.742 E0.03794
G1 X94.724 Y82.865 E0.03792
G1 X95.122 Y82.022 E0.03793
G1 X95.601 Y81.222 E0.03792
G1 X96.157 Y80.474 E0.03792
G1 X96.781 Y79.785 E0.03783
G1 X97.474 Y79.157 E0.03803
G1 X98.222 Y78.601 E0.03792
G1 X99.022 Y78.122 E0.03792
G1 X99.865 Y77.724 E0.03793
G1 X100.742 Y77.410 E0.03792
G1 X101.647 Y77.183 E0.03794
G1 X102.569 Y77.046 E0.03793
G1 X103.500 Y77.001 E0.03792
G1 X104.431 Y77.046 E0.03792
G1 X105.353 Y77.183 E0.03793
G1 X106.258 Y77.410 E0.03794
G1 X107.135 Y77.724 E0.03792
G1 X107.978 Y78.122 E0.03793
G1 X108.778 Y78.601 E0.03792
G1 X109.526 Y79.157 E0.03792
G1 X110.217 Y79.783 E0.03793
G1 X110.843 Y80.474 E0.03793
G1 X111.399 Y81.222 E0.03792
G1 X111.878 Y82.022 E0.03792
G1 X112.276 Y82.865 E0.03793
G1 X112.590 Y83.742 E0.03792
G1 X112.817 Y84.647 E0.03794
G1 X112.954 Y85.569 E0.03793
G1 X112.999 Y86.500 E0.03792
G1 X112.954 Y87.431 E0.03792
G1 X112.817 Y88.353 E0.03793
G1 X112.590 Y89.258 E0.03794
G1 X112.276 Y90.135 E0.03792
G1 X111.881 Y90.972 E0.03764
M106 S255
;BEFORE_LAYER_CHANGE
G92 E0.0
;0.2


G1 F8640
G1 X114.200 Y93.307 E-0.76000
G1 E-0.04000 F2100.00000
G1 Z0.700 F10800.000
;AFTER_LAYER_CHANGE
;0.2
G1 X111.855 Y91.026
G1 Z0.200
G1 E0.80000 F2100.00000
M204 S800
G1 F900
G1 X123.507 Y102.678 E0.67039
G1 X137.000 Y102.678 E0.54894
G1 X137.000 Y95.678 E0.28478
G1 X156.000 Y95.678 E0.77298
G1 X156.000 Y114.678 E0.77298
G1 X137.000 Y114.678 E0.77298
G1 X137.000 Y106.678 E0.32546
G1 X123.506 Y106.678 E0.54898
G1 X111.610 Y118.574 E0.68445
G1 X111.878 Y119.022 E0.02122
G1 X112.276 Y119.865 E0.03793
G1 X112.590 Y120.742 E0.03792
G1 X112.817 Y121.647 E0.03794
G1 X112.954 Y122.569 E0.03793
G1 X112.999 Y123.500 E0.03792
G1 X112.954 Y124.431 E0.03792
G1 X112.817 Y125.353 E0.03793
G1 X112.590 Y126.258 E0.03794
G1 X112.276 Y127.135 E0.03792
G1 X111.878 Y127.978 E0.03793
G1 X111.399 Y128.778 E0.03792
G1 X110.843 Y129.526 E0.03792
G1 X110.217 Y130.217 E0.03793
G1 X109.526 Y130.843 E0.03793
G1 X108.778 Y131.399 E0.03792
G1 X107.978 Y131.878 E0.03792
G1 X107.135 Y132.276 E0.03793
G1 X106.258 Y132.590 E0.03792
G1 X105.353 Y132.817 E0.03794
G1 X104.431 Y132.954 E0.03793
G1 X103.500 Y132.999 E0.03792
G1 X102.569 Y132.954 E0.03792
G1 X101.647 Y132.817 E0.03793
G1 X100.742 Y132.590 E0.03794
G1 X99.865 Y132.276 E0.03792
G1 X99.022 Y131.878 E0.03793
G1 X98.222 Y131.399 E0.03792
G1 X97.474 Y130.843 E0.03792
G1 X96.783 Y130.217 E0.03793
G1 X96.157 Y129.526 E0.03793
G1 X95.601 Y128.778 E0.03792
G1 X95.122 Y127.978 E0.03792
G1 X94.724 Y127.135 E0.03793
G1 X94.410 Y126.258 E0.03792
G1 X94.183 Y125.353 E0.03794
G1 X94.046 Y124.431 E0.03793
G1 X94.001 Y123.500 E0.03792
G1 X94.046 Y122.569 E0.03792
G1 X94.183 Y121.647 E0.03793
G1 X94.410 Y120.742 E0.03794
G1 X94.724 Y119.865 E0.03792
G1 X95.122 Y119.022 E0.03793
G1 X95.601 Y118.222 E0.03792
G1 X96.157 Y117.474 E0.03792
G1 X96.783 Y116.783 E0.03793
G1 X97.474 Y116.157 E0.03793
G1 X98.222 Y115.601 E0.03792
G1 X99.022 Y115.122 E0.03792
G1 X99.865 Y114.724 E0.03793
G1 X100.742 Y114.410 E0.03792
G1 X101.647 Y114.183 E0.03794
G1 X102.569 Y114.046 E0.03793
G1 X103.500 Y114.001 E0.03792
G1 X104.431 Y114.046 E0.03792
G1 X105.353 Y114.183 E0.03793
G1 X106.258 Y114.410 E0.03794
G1 X107.135 Y114.724 E0.03792
G1 X107.978 Y115.122 E0.03793
G1 X108.870 Y115.657 E0.04231
G1 X119.849 Y104.678 E0.63165
G1 X109.232 Y94.061 E0.61082
G1 X108.778 Y94.399 E0.02303
G1 X107.978 Y94.878 E0.03792
G1 X107.135 Y95.276 E0.03793
G1 X106.258 Y95.590 E0.03792
G1 X105.353 Y95.817 E0.03794
G1 X104.431 Y95.954 E0.03793
G1 X103.500 Y95.999 E0.03792
G1 X102.569 Y95.954 E0.03792
G1 X101.647 Y95.817 E0.03793
G1 X100.742 Y95.590 E0.03794
G1 X99.865 Y95.276 E0.03792
G1 X99.022 Y94.878 E0.03793
G1 X98.222 Y94.399 E0.03792
G1 X97.474 Y93.843 E0.03792
G1 X96.788 Y93.222 E0.03763
G1 X96.157 Y92.526 E0.03822
G1 X95.601 Y91.778 E0.03791
G1 X95.122 Y90.978 E0.03792
G1 X94.724 Y90.135 E0.03793
G1 X94.410 Y89.258 E0.03792
G1 X94.183 Y88.353 E0.03794
G1 X94.046 Y87.431 E0.03793
G1 X94.001 Y86.500 E0.03792
G1 X94.046 Y85.569 E0.03792
G1 X94.183 Y84.647 E0.03793
G1 X94.410 Y83.742 E0.03794
G1 X94.724 Y82.865 E0.03792
G1 X95.122 Y82.022 E0.03793
G1 X95.601 Y81.222 E0.03792
G1 X96.157 Y80.474 E0.03792
G1 X96.778 Y79.788 E0.03763
G1 X97.474 Y79.157 E0.03822
G1 X98.222 Y78.601 E0.03791
G1 X99.022 Y78.122 E0.03792
G1 X99.865 Y77.724 E0.03793
G1 X100.742 Y77.410 E0.03792
G1 X101.647 Y77.183 E0.03794
G1 X102.569 Y77.046 E0.03793
G1 X103.500 Y77.001 E0.03792
G1 X104.431 Y77.046 E0.03792
G1 X105.353 Y77.183 E0.03793
G1 X106.258 Y77.410 E0.03794
G1 X107.135 Y77.724 E0.03792
G1 X107.978 Y78.122 E0.03793
G1 X108.778 Y78.601 E0.03792
G1 X109.526 Y79.157 E0.03792
G1 X110.217 Y79.783 E0.03793
G1 X110.843 Y80.474 E0.03793
G1 X111.399 Y81.222 E0.03792
G1 X111.878 Y82.022 E0.03792
G1 X112.276 Y82.865 E0.03793
G1 X112.590 Y83.742 E0.03792
G1 X112.817 Y84.647 E0.03794
G1 X112.954 Y85.569 E0.03793
G1 X112.999 Y86.500 E0.03792
G1 X112.954 Y87.431 E0.03792
G1 X112.817 Y88.353 E0.03793
G1 X112.590 Y89.258 E0.03794
G1 X112.276 Y90.135 E0.03792
G1 X111.881 Y90.972 E0.03764
M204 S1000
;BEFORE_LAYER_CHANGE
G92 E0.0
;0.3


G1 F8640
G1 X114.200 Y93.307 E-0.76000
G1 E-0.04000 F2100.00000
G1 Z0.800 F10800.000
;AFTER_LAYER_CHANGE
;0.3
G1 X111.855 Y91.026
G1 Z0.300
G1 E0.80000 F2100.00000
M204 S800
G1 F900
G1 X123.507 Y102.678 E0.67039
G1 X137.000 Y102.678 E0.54894
G1 X137.000 Y95.678 E0.28478
G1 X156.000 Y95.678 E0.77298
G1 X156.000 Y114.678 E0.77298
G1 X137.000 Y114.678 E0.77298
G1 X137.000 Y106.678 E0.32546
G1 X123.506 Y106.678 E0.54898
G1 X111.610 Y118.574 E0.68445
G1 X111.878 Y119.022 E0.02122
G1 X112.276 Y119.865 E0.03793
G1 X112.590 Y120.742 E0.03792
G1 X112.817 Y121.647 E0.03794
G1 X112.954 Y122.569 E0.03793
G1 X112.999 Y123.500 E0.03792
G1 X112.954 Y124.431 E0.03792
G1 X112.817 Y125.353 E0.03793
G1 X112.590 Y126.258 E0.03794
G1 X112.276 Y127.135 E0.03792
G1 X111.878 Y127.978 E0.03793
G1 X111.399 Y128.778 E0.03792
G1 X110.843 Y129.526 E0.03792
G1 X110.217 Y130.217 E0.03793
G1 X109.526 Y130.843 E0.03793
G1 X108.778 Y131.399 E0.03792
G1 X107.978 Y131.878 E0.03792
G1 X107.135 Y132.276 E0.03793
G1 X106.258 Y132.590 E0.03792
G1 X105.353 Y132.817 E0.03794
G1 X104.431 Y132.954 E0.03793
G1 X103.500 Y132.999 E0.03792
G1 X102.569 Y132.954 E0.03792
G1 X101.647 Y132.817 E0.03793
G1 X100.742 Y132.590 E0.03794
G1 X99.865 Y132.276 E0.03792
G1 X99.022 Y131.878 E0.03793
G1 X98.222 Y131.399 E0.03792
G1 X97.474 Y130.843 E0.03792
G1 X96.783 Y130.217 E0.03793
G1 X96.157 Y129.526 E0.03793
G1 X95.601 Y128.778 E0.03792
G1 X95.122 Y127.978 E0.03792
G1 X94.724 Y127.135 E0.03793
G1 X94.410 Y126.258 E0.03792
G1 X94.183 Y125.353 E0.03794
G1 X94.046 Y124.431 E0.03793
G1 X94.001 Y123.500 E0.03792
G1 X94.046 Y122.569 E0.03792
G1 X94.183 Y121.647 E0.03793
G1 X94.410 Y120.742 E0.03794
G1 X94.724 Y119.865 E0.03792
G1 X95.122 Y119.022 E0.03793
G1 X95.601 Y118.222 E0.03792
G1 X96.157 Y117.474 E0.03792
G1 X96.783 Y116.783 E0.03793
G1 X97.474 Y116.157 E0.03793
G1 X98.222 Y115.601 E0.03792
G1 X99.022 Y115.122 E0.03792
G1 X99.865 Y114.724 E0.03793
G1 X100.742 Y114.410 E0.03792
G1 X101.647 Y114.183 E0.03794
G1 X102.569 Y114.046 E0.03793
G1 X103.500 Y114.001 E0.03792
G1 X104.431 Y114.046 E0.03792
G1 X105.353 Y114.183 E0.03793
G1 X106.258 Y114.410 E0.03794
G1 X107.135 Y114.724 E0.03792
G1 X107.978 Y115.122 E0.03793
G1 X108.870 Y115.657 E0.04231
G1 X119.849 Y104.678 E0.63165
G1 X109.232 Y94.061 E0.61082
G1 X108.778 Y94.399 E0.02303
G1 X107.978 Y94.878 E0.03792
G1 X107.135 Y95.276 E0.03793
G1 X106.258 Y95.590 E0.03792
G1 X105.353 Y95.817 E0.03794
G1 X104.431 Y95.954 E0.03793
G1 X103.500 Y95.999 E0.03792
G1 X102.569 Y95.954 E0.03792
G1 X101.647 Y95.817 E0.03793
G1 X100.742 Y95.590 E0.03794
G1 X99.865 Y95.276 E0.03792
G1 X99.022 Y94.878 E0.03793
G1 X98.222 Y94.399 E0.03792
G1 X97.474 Y93.843 E0.03792
G1 X96.783 Y93.217 E0.03793
G1 X96.157 Y92.526 E0.03793
G1 X95.601 Y91.778 E0.03792
G1 X95.122 Y90.978 E0.03792
G1 X94.724 Y90.135 E0.03793
G1 X94.410 Y89.258 E0.03792
G1 X94.183 Y88.353 E0.03794
G1 X94.046 Y87.431 E0.03793
G1 X94.001 Y86.500 E0.03792
G1 X94.046 Y85.569 E0.03792
G1 X94.183 Y84.647 E0.03793
G1 X94.410 Y83.742 E0.03794
G1 X94.724 Y82.865 E0.03792
G1 X95.122 Y82.022 E0.03793
G1 X95.601 Y81.222 E0.03792
G1 X96.157 Y80.474 E0.03792
G1 X96.783 Y79.783 E0.03793
G1 X97.474 Y79.157 E0.03793
G1 X98.222 Y78.601 E0.03792
G1 X99.022 Y78.122 E0.03792
G1 X99.865 Y77.724 E0.03793
G1 X100.742 Y77.410 E0.03792
G1 X101.647 Y77.183 E0.03794
G1 X102.569 Y77.046 E0.03793
G1 X103.500 Y77.001 E0.03792
G1 X104.431 Y77.046 E0.03792
G1 X105.353 Y77.183 E0.03793
G1 X106.258 Y77.410 E0.03794
G1 X107.135 Y77.724 E0.03792
G1 X107.978 Y78.122 E0.03793
G1 X108.778 Y78.601 E0.03792
G1 X109.526 Y79.157 E0.03792
G1 X110.217 Y79.783 E0.03793
G1 X110.843 Y80.474 E0.03793
G1 X111.399 Y81.222 E0.03792
G1 X111.878 Y82.022 E0.03792
G1 X112.276 Y82.865 E0.03793
G1 X112.590 Y83.742 E0.03792
G1 X112.817 Y84.647 E0.03794
G1 X112.954 Y85.569 E0.03793
G1 X112.999 Y86.500 E0.03792
G1 X112.954 Y87.431 E0.03792
G1 X112.817 Y88.353 E0.03793
G1 X112.590 Y89.258 E0.03794
G1 X112.276 Y90.135 E0.03792
G1 X111.881 Y90.972 E0.03764
M204 S1000
;BEFORE_LAYER_CHANGE
G92 E0.0
;0.4


G1 F8640
G1 X114.200 Y93.307 E-0.76000
G1 E-0.04000 F2100.00000
G1 Z0.900 F10800.000
;AFTER_LAYER_CHANGE
;0.4
G1 X111.855 Y91.026
G1 Z0.400
G1 E0.80000 F2100.00000
M204 S800
G1 F900
G1 X123.507 Y102.678 E0.67039
M73 Q1 S61
M73 P1 R61
G1 X137.000 Y102.678 E0.54894
G1 X137.000 Y95.678 E0.28478
G1 X156.000 Y95.678 E0.77298
G1 X156.000 Y114.678 E0.77298
G1 X137.000 Y114.678 E0.77298
G1 X137.000 Y106.678 E0.32546
G1 X123.506 Y106.678 E0.54898
G1 X111.610 Y118.574 E0.68445
G1 X111.878 Y119.022 E0.02122
G1 X112.276 Y119.865 E0.03793
G1 X112.590 Y120.742 E0.03792
G1 X112.817 Y121.647 E0.03794
G1 X112.954 Y122.569 E0.03793
G1 X112.999 Y123.500 E0.03792
G1 X112.954 Y124.431 E0.03792
G1 X112.817 Y125.353 E0.03793
G1 X112.590 Y126.258 E0.03794
G1 X112.276 Y127.135 E0.03792
G1 X111.878 Y127.978 E0.03793
G1 X111.399 Y128.778 E0.03792
G1 X110.843 Y129.526 E0.03792
G1 X110.217 Y130.217 E0.03793
G1 X109.526 Y130.843 E0.03793
G1 X108.778 Y131.399 E0.03792
G1 X107.978 Y131.878 E0.03792
G1 X107.135 Y132.276 E0.03793
G1 X106.258 Y132.590 E0.03792
G1 X105.353 Y132.817 E0.03794
G1 X104.431 Y132.954 E0.03793
G1 X103.500 Y132.999 E0.03792
G1 X102.569 Y132.954 E0.03792
G1 X101.647 Y132.817 E0.03793
G1 X100.742 Y132.590 E0.03794
G1 X99.865 Y132.276 E0.03792
G1 X99.022 Y131.878 E0.03793
G1 X98.222 Y131.399 E0.03792
G1 X97.474 Y130.843 E0.03792
G1 X96.783 Y130.217 E0.03793
G1 X96.157 Y129.526 E0.03793
G1 X95.601 Y128.778 E0.03792
G1 X95.122 Y127.978 E0.03792
G1 X94.724 Y127.135 E0.03793
G1 X94.410 Y126.258 E0.03792
G1 X94.183 Y125.353 E0.03794
G1 X94.046 Y124.431 E0.03793
G1 X94.001 Y123.500 E0.03792
G1 X94.046 Y122.569 E0.03792
G1 X94.183 Y121.647 E0.03793
G1 X94.410 Y120.742 E0.03794
G1 X94.724 Y119.865 E0.03792
G1 X95.122 Y119.022 E0.03793
G1 X95.601 Y118.222 E0.03792
G1 X96.157 Y117.474 E0.03792
G1 X96.783 Y116.783 E0.03793
G1 X97.474 Y116.157 E0.03793
G1 X98.222 Y115.601 E0.03792
G1 X99.022 Y115.122 E0.03792
G1 X99.865 Y114.724 E0.03793
G1 X100.742 Y114.410 E0.03792
G1 X101.647 Y114.183 E0.03794
G1 X102.569 Y114.046 E0.03793
G1 X103.500 Y114.001 E0.03792
G1 X104.431 Y114.046 E0.03792
G1 X105.353 Y114.183 E0.03793
G1 X106.258 Y114.410 E0.03794
G1 X107.135 Y114.724 E0.03792
G1 X107.978 Y115.122 E0.03793
G1 X108.870 Y115.657 E0.04231
G1 X119.849 Y104.678 E0.63165
G1 X109.232 Y94.061 E0.61082
G1 X108.778 Y94.399 E0.02303
G1 X107.978 Y94.878 E0.03792
G1 X107.135 Y95.276 E0.03793
G1 X106.258 Y95.590 E0.03792
G1 X105.353 Y95.817 E0.03794
G1 X104.431 Y95.954 E0.03793
G1 X103.500 Y95.999 E0.03792
G1 X102.569 Y95.954 E0.03792
G1 X101.647 Y95.817 E0.03793
G1 X100.742 Y95.590 E0.03794
