; generated by PrusaSlicer 2.0.0+ on 2019-10-22 at 23:37:05

; 

; external perimeters extrusion width = 1.00mm
; perimeters extrusion width = 1.00mm
; infill extrusion width = 1.00mm
; solid infill extrusion width = 1.00mm
; top infill extrusion width = 0.40mm
; first layer extrusion width = 1.00mm

M73 P0 R63
M73 Q0 S63
M201 X3000 Y3000 Z3000 E5000 ; sets maximum accelerations, mm/sec^2
M203 X200 Y200 Z12 E12 ; sets maximum feedrates, mm/sec
M204 P3000 R1250 T1250 ; sets acceleration (P, T) and retract acceleration (R), mm/sec^2
M205 X8.00 Y8.00 Z0.40 E1.50 ; sets the jerk limits, mm/sec
M205 S0 T0 ; sets the minimum extruding and travel feed rate, mm/sec
M107
M115 U3.7.2 ; tell printer latest fw version
G90 ; use absolute coordinates
M83 ; extruder relative mode
M1001 S1 ; wax mode
M104 S90 ; set extruder temp
M140 S0 ; set bed temp
M190 S0 ; wait for bed temp
M109 S90 ; wait for extruder temp
G4 S0 ; wait for wax melting
M302 S40; allow cold extrusion
G28 W ; home all without mesh bed level
;G80 ; mesh bed leveling
G92 E0.0
M73 Q0 S63
M73 P0 R62
G92 E0.0
M221 S95
M900 K30 ; Filament gcode
G21 ; set units to millimeters
G90 ; use absolute coordinates
M83 ; use relative distances for extrusion
;BEFORE_LAYER_CHANGE
G92 E0.0
;0.1


G0 Z3  F9000
;AFTER_LAYER_CHANGE
;0.1
G0 X111.855 Y91.026 F9000
G0 Z3 F9000
M204 S1000
G1 X178.125920446 Y85.7649525194 ;resting point1
M107
G0 Z30 F4000
G0 X139.235047481 Y46.8740795541 ;resting point2
G4 S10
G0 Z3
M106
G1 X111.855 Y91.026 F10000
G1 X123.507 Y102.678 F10000

G1 X137.000 Y102.678 F10000

G1 X137.000 Y95.678 F10000

G1 X178.125920446 Y85.7649525194 ;resting point1
M107
G0 Z30 F4000
G0 X86.1091270347 Y61.1091270347 ;resting point2
G4 S10
G0 Z3
M106
G1 X137.0 Y95.678 F10000
G1 X156.000 Y95.678 F10000

G1 X156.000 Y114.678 F10000

G1 X137.000 Y114.678 F10000

G1 X97.5 Y147.631397208 ;resting point1
M107
G0 Z30 F4000
G0 X172.631397208 Y127.5 ;resting point2
G4 S10
G0 Z3
M106
G1 X137.0 Y114.678 F10000
G1 X137.000 Y106.678 F10000

G1 X123.506 Y106.678 F10000

G1 X111.610 Y118.574 F10000

G1 X139.235047481 Y153.125920446 ;resting point1
M107
G0 Z30 F4000
G0 X178.125920446 Y114.235047481 ;resting point2
G4 S10
G0 Z3
M106
G1 X111.61 Y118.574 F10000
G1 X111.878 Y119.022 F10000

G1 X112.276 Y119.865 F10000

G1 X112.590 Y120.742 F10000

G1 X112.817 Y121.647 F10000

G1 X112.954 Y122.569 F10000

G1 X112.999 Y123.500 F10000

G1 X112.954 Y124.431 F10000

G1 X112.817 Y125.353 F10000

G1 X112.590 Y126.258 F10000

G1 X112.276 Y127.135 F10000

G1 X111.878 Y127.978 F10000

G1 X111.399 Y128.778 F10000

G1 X110.843 Y129.526 F10000

G1 X110.217 Y130.217 F10000

G1 X109.526 Y130.843 F10000

G1 X108.778 Y131.399 F10000

G1 X107.978 Y131.878 F10000

G1 X107.135 Y132.276 F10000

G1 X106.258 Y132.590 F10000

G1 X105.353 Y132.817 F10000

G1 X104.431 Y132.954 F10000

G1 X103.500 Y132.999 F10000

G1 X102.569 Y132.954 F10000

G1 X101.647 Y132.817 F10000

G1 X100.742 Y132.590 F10000

G1 X99.865 Y132.276 F10000

G1 X99.022 Y131.878 F10000

G1 X98.222 Y131.399 F10000

G1 X97.476 Y130.845 F10000

G1 X96.783 Y130.217 F10000

G1 X96.157 Y129.526 F10000

G1 X95.601 Y128.778 F10000

G1 X95.122 Y127.978 F10000

G1 X94.724 Y127.135 F10000

G1 X94.410 Y126.258 F10000

G1 X94.183 Y125.353 F10000

G1 X94.046 Y124.431 F10000

G1 X94.001 Y123.500 F10000

G1 X94.046 Y122.569 F10000

G1 X94.183 Y121.647 F10000

G1 X94.410 Y120.742 F10000

G1 X94.724 Y119.865 F10000

G1 X95.122 Y119.022 F10000

G1 X95.601 Y118.222 F10000

G1 X96.157 Y117.474 F10000

G1 X96.783 Y116.783 F10000

G1 X97.474 Y116.157 F10000

G1 X98.222 Y115.601 F10000

G1 X99.022 Y115.122 F10000

G1 X99.865 Y114.724 F10000

G1 X100.742 Y114.410 F10000

G1 X101.647 Y114.183 F10000

G1 X102.569 Y114.046 F10000

G1 X103.500 Y114.001 F10000

G1 X104.431 Y114.046 F10000

G1 X105.353 Y114.183 F10000

G1 X106.258 Y114.410 F10000

G1 X107.135 Y114.724 F10000

G1 X107.978 Y115.122 F10000

G1 X108.870 Y115.657 F10000

G1 X77.3686027919 Y72.5 ;resting point1
M107
G0 Z30 F4000
G0 X71.8740795541 Y85.7649525194 ;resting point2
G4 S10
G0 Z3
M106
G1 X108.87 Y115.657 F10000
G1 X119.849 Y104.678 F10000

G1 X109.232 Y94.061 F10000

G1 X77.3686027919 Y127.5 ;resting point1
M107
G0 Z30 F4000
G0 X77.3686027919 Y127.5 ;resting point2
G4 S10
G0 Z3
M106
G1 X109.232 Y94.061 F10000
G1 X108.778 Y94.399 F10000

G1 X107.978 Y94.878 F10000

G1 X107.135 Y95.276 F10000

G1 X106.258 Y95.590 F10000

G1 X105.353 Y95.817 F10000

G1 X104.431 Y95.954 F10000

G1 X103.500 Y95.999 F10000

G1 X102.569 Y95.954 F10000

G1 X101.647 Y95.817 F10000

G1 X100.742 Y95.590 F10000

G1 X99.865 Y95.276 F10000

G1 X99.022 Y94.878 F10000

G1 X98.222 Y94.399 F10000

G1 X97.474 Y93.843 F10000

G1 X96.785 Y93.219 F10000

G1 X96.158 Y92.528 F10000

G1 X95.601 Y91.778 F10000

G1 X95.122 Y90.978 F10000

G1 X94.724 Y90.135 F10000

G1 X94.410 Y89.258 F10000

G1 X94.183 Y88.353 F10000

G1 X94.046 Y87.431 F10000

G1 X94.001 Y86.500 F10000

G1 X94.046 Y85.569 F10000

G1 X94.183 Y84.647 F10000

G1 X94.410 Y83.742 F10000

G1 X94.724 Y82.865 F10000

G1 X95.122 Y82.022 F10000

G1 X95.601 Y81.222 F10000

G1 X96.157 Y80.474 F10000

G1 X96.781 Y79.785 F10000

G1 X97.474 Y79.157 F10000

G1 X98.222 Y78.601 F10000

G1 X99.022 Y78.122 F10000

G1 X99.865 Y77.724 F10000

G1 X100.742 Y77.410 F10000

G1 X101.647 Y77.183 F10000

G1 X102.569 Y77.046 F10000

G1 X103.500 Y77.001 F10000

G1 X104.431 Y77.046 F10000

G1 X105.353 Y77.183 F10000

G1 X106.258 Y77.410 F10000

G1 X107.135 Y77.724 F10000

G1 X107.978 Y78.122 F10000

G1 X108.778 Y78.601 F10000

G1 X109.526 Y79.157 F10000

G1 X110.217 Y79.783 F10000

G1 X110.843 Y80.474 F10000

G1 X111.399 Y81.222 F10000

G1 X111.878 Y82.022 F10000

G1 X112.276 Y82.865 F10000

G1 X112.590 Y83.742 F10000

G1 X112.817 Y84.647 F10000

G1 X112.954 Y85.569 F10000

G1 X112.999 Y86.500 F10000

G1 X112.954 Y87.431 F10000

G1 X112.817 Y88.353 F10000

G1 X112.590 Y89.258 F10000

G1 X112.276 Y90.135 F10000

G1 X111.881 Y90.972 F10000

M106 S255
;BEFORE_LAYER_CHANGE
M107
G4 ; wait
M221 S100
M107 ; turn off fan
M84 ; disable motors
G0 X20 Y20 Z50 F3000
M73 P100 R0
M73 Q100 S0
